static/images/social/linkdin-logo.svg

<svg height="150" viewBox="0 0 150 150" width="150" xmlns="http://www.w3.org/2000/svg"><path d="m131.837063 87.4265291v42.4559949h-24.613301v-39.6125483c0-9.9509951-3.560048-16.7421602-12.4692474-16.7421602-6.8010437 0-10.8483496 4.5767476-12.6289078 9.0039806-.6493204 1.5827185-.8164563 3.7856554-.8164563 6.0011408v41.3495871h-24.6215777s.331602-67.0906551 0-74.0417473h24.6191748v10.4951214c-.0499272.0784951-.1148059.163131-.1617961.2392233h.1617961v-.2392233c3.270898-5.0378398 9.1123786-12.2345631 22.1874274-12.2345631 16.199102-.000267 28.342888 10.5824271 28.342888 33.3251941zm-100.9047086-67.2775485c-8.4230097 0-13.9323544 5.5248301-13.9323544 12.7901699 0 7.1070145 5.3499515 12.7995145 13.6055583 12.7995145h.164466c8.5861407 0 13.9259466-5.691432 13.9259466-12.7995145-.1617961-7.2653398-5.3398059-12.7901699-13.7636165-12.7901699zm-12.4700486 109.7335434h24.612233v-74.0417473h-24.612233z" fill="#fff"/></svg>

<?xml version="1.0" encoding="UTF-8"?>
<svg width="150px" height="150px" viewBox="0 0 150 150" version="1.1" xmlns="http://www.w3.org/2000/svg" xmlns:xlink="http://www.w3.org/1999/xlink">
    <!-- Generator: Sketch 54.1 (76490) - https://sketchapp.com -->
    <title>LinkdIn</title>
    <desc>Created with Sketch.</desc>
    <g id="LinkdIn" stroke="none" stroke-width="1" fill="none" fill-rule="evenodd">
        <path d="M131.837063,87.4265291 L131.837063,129.882524 L107.223762,129.882524 L107.223762,90.2699757 C107.223762,80.3189806 103.663714,73.5278155 94.7545146,73.5278155 C87.9534709,73.5278155 83.906165,78.1045631 82.1256068,82.5317961 C81.4762864,84.1145146 81.3091505,86.3174515 81.3091505,88.5329369 L81.3091505,129.882524 L56.6875728,129.882524 C56.6875728,129.882524 57.0191748,62.7918689 56.6875728,55.8407767 L81.3067476,55.8407767 L81.3067476,66.3358981 C81.2568204,66.4143932 81.1919417,66.4990291 81.1449515,66.5751214 L81.3067476,66.5751214 L81.3067476,66.3358981 C84.5776456,61.2980583 90.4191262,54.101335 103.494175,54.101335 C119.693277,54.101068 131.837063,64.6837621 131.837063,87.4265291 Z M30.9323544,20.1489806 C22.5093447,20.1489806 17,25.6738107 17,32.9391505 C17,40.046165 22.3499515,45.738665 30.6055583,45.738665 L30.7700243,45.738665 C39.356165,45.738665 44.6959709,40.047233 44.6959709,32.9391505 C44.5341748,25.6738107 39.356165,20.1489806 30.9323544,20.1489806 Z M18.4623058,129.882524 L43.0745388,129.882524 L43.0745388,55.8407767 L18.4623058,55.8407767 L18.4623058,129.882524 Z" id="LinkedIn-logo" fill="#FFFFFF" fill-rule="nonzero"></path>
    </g>
</svg>
